X: 96
T:Hundred Pipers
O: Trad
R: jig
M: 6/8
L: 1/8
%% Q: 3/8=112
K: A
 A2B \
|: "A"c2E EFE | "D"F2A A2f | "A"e2c "F#m"cBA | "B"B2c "E7"BAB | 
| "A"c2E EFE | "D"F2A A2f | "A"e2c "E"BcB |1 A3 A2B :|2 A3 c2d | 
|: "A"e2e ece | "D"f2a agf | "A"e2c cBA | BcB Bcd |
| "A"e2e ece | "D"f2a agf | "A"e2c BcB |1 A3 c2d :|2 A3 z3 ||
%%text
%%text
